X:2863
T:Charlie Harris's
Z: id:dc-reel-35
M:C
L:1/8
K:D Major
B|A3B AFF2|A3d f3g|afef dedB|A2DF FEEF|!
A3B AFF2|A3d f3g|afef dedB|Adfe d3:|!
e|fded BAAB|d3f a3f|g2fg eBB2|dBAF EFDF|!
A3B AFF2|A3d f3g|afef dedB|Adfe d3:|!


